svgs/materials/action/line_style.svg

<svg xmlns="http://www.w3.org/2000/svg" enable-background="new 0 0 24 24" height="24" viewBox="0 0 24 24" width="24"><g><rect fill="none" height="24" width="24"/></g><g><g><g><path d="M3,16h5v-2H3V16z M9.5,16h5v-2h-5V16z M16,16h5v-2h-5V16z M3,20h2v-2H3V20z M7,20h2v-2H7V20z M11,20h2v-2h-2V20z M15,20 h2v-2h-2V20z M19,20h2v-2h-2V20z M3,12h8v-2H3V12z M13,12h8v-2h-8V12z M3,4v4h18V4H3z"/></g></g></g></svg>

<?xml version="1.0" encoding="UTF-8" standalone="no"?>
<svg
   enable-background="new 0 0 24 24"
   height="24"
   viewBox="0 0 24 24"
   width="24"
   version="1.1"
   id="svg14"
   sodipodi:docname="line_style.svg"
   inkscape:version="1.2 (dc2aeda, 2022-05-15)"
   xmlns:inkscape="http://www.inkscape.org/namespaces/inkscape"
   xmlns:sodipodi="http://sodipodi.sourceforge.net/DTD/sodipodi-0.dtd"
   xmlns="http://www.w3.org/2000/svg"
   xmlns:svg="http://www.w3.org/2000/svg">
  <defs
     id="defs18" />
  <sodipodi:namedview
     id="namedview16"
     pagecolor="#ffffff"
     bordercolor="#000000"
     borderopacity="0.25"
     inkscape:showpageshadow="2"
     inkscape:pageopacity="0.0"
     inkscape:pagecheckerboard="0"
     inkscape:deskcolor="#d1d1d1"
     showgrid="false"
     inkscape:zoom="9.8333333"
     inkscape:cx="12.050847"
     inkscape:cy="12"
     inkscape:window-width="1309"
     inkscape:window-height="456"
     inkscape:window-x="0"
     inkscape:window-y="25"
     inkscape:window-maximized="0"
     inkscape:current-layer="svg14" />
  <path
     id="rect2"
     style="fill:none"
     d="M 0,0 H 24 V 24 H 0 Z" />
  <path
     d="M 3,16 H 8 V 14 H 3 Z m 6.5,0 h 5 v -2 h -5 z m 6.5,0 h 5 V 14 H 16 Z M 3,20 H 5 V 18 H 3 Z m 4,0 H 9 V 18 H 7 Z m 4,0 h 2 v -2 h -2 z m 4,0 h 2 v -2 h -2 z m 4,0 h 2 V 18 H 19 Z M 3,12 h 8 V 10 H 3 Z m 10,0 h 8 V 10 H 13 Z M 3,4 V 8 H 21 V 4 Z"
     id="path6" />
</svg>
